X: 42199
T: Wave And The Spade, The
R: jig
M: 6/8
K: Gmajor
BAG d2 e|d3d2c|BAG GAB|E2D DEF|
GDD ADD|BAG c2D|BAG GAB|A3A3|
BAG d2 e|d3d2c|BAG GAB|E2D DEF|
G3 A3|ABc d3|d3d2 c|BAG GAB|A2G G3|G3 GAB||
c2B A2 G|G2F E2D|GDD ABc|d2 g g2 f|
ece dBd|cgc BgB|A2G A2 B|A3A2 B|
c2B A2 G|G2F E2D|GDD ABc|d2 g g2 f|
ece dBd|cgc BgB|ADD FGA|G3G3||

